svg/24/window.svg

<svg width="24" height="24" viewBox="0 0 24 24" fill="currentColor" xmlns="http://www.w3.org/2000/svg"><path fill-rule="evenodd" clip-rule="evenodd" d="M2 6C2 4.89543 2.89543 4 4 4H20C21.1046 4 22 4.89543 22 6V18C22 19.1046 21.1046 20 20 20H4C2.89543 20 2 19.1046 2 18V6ZM4 5.5H20C20.2761 5.5 20.5 5.72386 20.5 6V7.5H3.5V6C3.5 5.72386 3.72386 5.5 4 5.5ZM3.5 9V18C3.5 18.2761 3.72386 18.5 4 18.5H20C20.2761 18.5 20.5 18.2761 20.5 18V9H3.5Z"/></svg>

<svg xmlns="http://www.w3.org/2000/svg" width="24" height="24" fill="currentColor" viewBox="0 0 24 24">
  <path fill-rule="evenodd" d="M2 6a2 2 0 0 1 2-2h16a2 2 0 0 1 2 2v12a2 2 0 0 1-2 2H4a2 2 0 0 1-2-2V6Zm2-.5h16a.5.5 0 0 1 .5.5v1.5h-17V6a.5.5 0 0 1 .5-.5ZM3.5 9v9a.5.5 0 0 0 .5.5h16a.5.5 0 0 0 .5-.5V9h-17Z" clip-rule="evenodd"/>
</svg>
